!!!COM: Alban (Maria Johannes) Berg
!!!OTL: [T452_Ber-w14p33m114-121]
**kern	**dynam	**kern	**dynam	**kern	**dynam	**kern	**dynam	**kern	**kern	**dynam	**kern	**text	**dynam	**kern	**dynam	**kern	**dynam	**kern	**dynam	**kern	**dynam
*part10	*part10	*part9	*part9	*part8	*part8	*part7	*part7	*part6	*part6	*part6	*part5	*part5	*part5	*part4	*part4	*part3	*part3	*part2	*part2	*part1	*part1
*staff11	*	*staff10	*	*staff9	*	*staff8	*	*staff7	*staff6	*	*staff5	*staff5	*	*staff4	*	*staff3	*	*staff2	*	*staff1	*
*I"Violoncello 1. Div.	*	*I"Violin II 2. Div.	*	*I"Violin II 1. Div.	*	*I"Violin I	*	*I"Harp	*	*	*I"Soprano	*	*	*I"Trumpet I in F	*	*I"Clarinet I in Bb	*	*I"Flute II	*	*I"Flute I	*
*I'Vc. 1.Div.	*	*I'Vln. II 2.Div.	*	*I'Vln. II 1.Div.	*	*I'Vln. I	*	*I'Hp.	*	*	*I'Sop.	*	*	*I'F Tpt.	*	*I'Bb Cl.	*	*I'2.Fl.	*	*I'1.Fl.	*
!!pagebreak:original
*clefC4	*	*clefG2	*	*clefG2	*	*clefG2	*	*clefF4	*clefG2	*	*clefG2	*	*	*clefG2	*	*clefG2	*	*clefG2	*	*clefG2	*
*	*	*	*	*	*	*	*	*	*	*	*	*	*	*ITrd-3c-5	*	*ITrd1c2	*	*	*	*	*
*k[]	*	*k[]	*	*k[]	*	*k[]	*	*k[]	*k[]	*	*k[]	*	*	*k[b-]	*	*k[b-e-]	*	*k[]	*	*k[]	*
*	*	*	*	*	*	*	*	*	*	*	*	*	*	*	*	*	*	*	*	*	*
*M4/4	*	*M4/4	*	*M4/4	*	*M4/4	*	*M4/4	*M4/4	*	*M4/4	*	*	*M4/4	*	*M4/4	*	*M4/4	*	*M4/4	*
!LO:TX:b:t=[pp]	!	!LO:TX:b:t=[mf]	!	!LO:TX:b:t=[mf]	!	!LO:TX:b:t=[mf]	!	!	!LO:TX:b:t=	!	!	!	!	!	!	!	!	!	!	!	!
!LO:TX:b:t=	!	!LO:TX:b:t=	!	!LO:TX:b:t=	!	!LO:TX:b:t=	!	!	!LO:TX:b:t=	!	!LO:TX:b:t=	!	!	!	!	!	!	!	!	!	!
*	*	*	*	*	*	*	*	*	*	*	*Xtuplet	*	*	*	*	*	*	*	*	*	*
!	!	!	!	!	!	!	!	!	!	!	!	!	!	!LO:TX:a:t=(con sord. sempre)	!	!LO:TX:b:t=[mf]	!	!	!	!LO:TX:a:t=accel.	!
!	!	!	!	!	!	!	!	!	!	!	!	!	!	!LO:TX:b:t=	!	!LO:TX:b:t=	!	!LO:TX:b:t=	!	!LO:TX:b:t=	!
8g-Xi	>	([2.bn	> ]	([2.bn)	> ]	([2.gg	> ]	4%3r	4%3r	.	6r	.	.	12r	.	(12e-L	>	4%3r	.	([2.bb-X	pp <
!	!	!	!	!	!	!	!	!	!	!	!	!	!	!LO:TX:b:t=pp,ma distinto	!	!	!	!	!	!	!
.	.	.	.	.	.	.	.	.	.	.	.	.	.	[6dd	< [ < > ]	12f	.	.	.	.	.
8r	]	.	.	.	.	.	.	.	.	.	.	.	.	.	.	.	.	.	.	.	.
.	.	.	.	.	.	.	.	.	.	.	12r	.	.	.	.	12g-XJ	.	.	.	.	.
4r	.	.	.	.	.	.	.	.	.	.	6r	.	.	12dd]	.	12a-XL	.	.	.	.	.
.	.	.	.	.	.	.	.	.	.	.	.	.	.	12r	.	12g-X	p	.	.	.	.
.	.	.	.	.	.	.	.	.	.	.	[12ddn	Wir	p	([12dd	[ < >	12a-J	]	.	.	.	.
4r	.	.	.	.	.	.	.	.	.	.	6.dd]	.	.	4dd]	[ [ < [	12g-L	.	.	.	.	.
.	.	.	.	.	.	.	.	.	.	.	.	.	.	.	.	12a-	.	.	.	.	.
.	.	.	.	.	.	.	.	.	.	.	.	.	.	.	.	12g-J	<	.	.	.	.
=1	=1	=1	=1	=1	=1	=1	=1	=1	=1	=1	=1	=1	=1	=1	=1	=1	=1	=1	=1	=1	=1
!	!	!	!	!	!	!	!	!	!	!	!	!	!	!	!	!	!	!	!	!LO:TX:t=[half-dot]=44	!
!	!	!	!	!	!	!LO:TX:t=[half-dot]=44	!	!	!	!	!	!	!	!LO:TX:b:t=p poco espr.	!	!LO:TX:b:i:t=poco espr.	!	!	!	!LO:TX:b:i:t=espr.	!
4%3r	.	4b_	pp	4b_	pp	12ggL])	.	4%3r	4%3r	.	[6.ee-X	leh-	.	2ee-X	.	2f	.	4%3r	.	2bb-]	.
!	!	!	!	!	!	!LO:TX:b:i:t=molto	!	!	!	!	!	!	!	!	!	!	!	!	!	!	!
.	.	.	.	.	.	(12Gn	p	.	.	.	.	.	.	.	.	.	.	.	.	.	.
.	.	.	.	.	.	12A-XJ	.	.	.	.	.	.	.	.	.	.	.	.	.	.	.
.	.	12b])	.	12b])	.	12B-XL	.	.	.	.	12ee-]	.	.	.	.	.	.	.	.	.	.
.	.	[6bn	< [ > ]	[6bn	< [ > ]	12cn	.	.	.	.	[6bn	-nen	.	.	.	.	.	.	.	.	.
.	.	.	.	.	.	12d-XJ	.	.	.	.	.	.	.	.	.	.	.	.	.	.	.
.	.	4r	.	4r	.	12anL	.	.	.	.	6b]	.	.	[4g	>	4eX)	] > ]	.	.	4dd-X)	] > ]
.	.	.	.	.	.	12bn	.	.	.	.	.	.	.	.	.	.	.	.	.	.	.
.	.	.	.	.	.	12anJ	.	.	.	.	[12gn	uns	.	.	.	.	.	.	.	.	.
=2	=2	=2	=2	=2	=2	=2	=2	=2	=2	=2	=2	=2	=2	=2	=2	=2	=2	=2	=2	=2	=2
4%3r	.	4%3r	.	4%3r	.	12ee-XL	.	4%3r	4%3r	.	6.g]	.	.	4g])	]	4%3r	.	(2ffn	p < [	(2bb-X	p < [
.	.	.	.	.	.	12ddn	.	.	.	.	.	.	.	.	.	.	.	.	.	.	.
.	.	.	.	.	.	12ee-XJ	.	.	.	.	.	.	.	.	.	.	.	.	.	.	.
.	.	.	.	.	.	12ddnL	.	.	.	.	[6.a-X	weich	.	([4a-X	< [ > ]	.	.	.	.	.	.
.	.	.	.	.	.	12bn	.	.	.	.	.	.	.	.	.	.	.	.	.	.	.
.	.	.	.	.	.	12f#XJ	.	.	.	.	.	.	.	.	.	.	.	.	.	.	.
.	.	.	.	.	.	12d#XL	.	.	.	.	12a-]	.	.	12a-]	.	.	.	4g-X)	> ]	4dd-X)	> ]
.	.	.	.	.	.	12cn	.	.	.	.	[6an	auf	.	[6a	< [ > ]	.	.	.	.	.	.
.	.	.	.	.	.	12BnJ	.	.	.	.	.	.	.	.	.	.	.	.	.	.	.
=3	=3	=3	=3	=3	=3	=3	=3	=3	=3	=3	=3	=3	=3	=3	=3	=3	=3	=3	=3	=3	=3
4%3r	.	4%3r	.	4%3r	.	12cnL	.	4%3r	4%3r	.	6a]	.	.	6a]	.	(4g	p	(4een	< [	(4bb-X	< [
.	.	.	.	.	.	12dn	.	.	.	.	.	.	.	.	.	.	.	.	.	.	.
.	.	.	.	.	.	12cJ	.	.	.	.	[12b-X	den	.	[12b-	< [ >	.	.	.	.	.	.
.	.	.	.	.	.	12dL	.	.	.	.	6.b-]	.	.	4b-]	]	8.eX)	.	8.a-X)	> ]	8.dd-X)	> ]
.	.	.	.	.	.	12c	.	.	.	.	.	.	.	.	.	.	.	.	.	.	.
.	.	.	.	.	.	12e-XJ	.	.	.	.	.	.	.	.	.	.	.	.	.	.	.
.	.	.	.	.	.	.	.	.	.	.	.	.	.	.	.	16r	.	16r	.	16r	.
.	.	.	.	.	.	12fnL	.	.	.	.	[6.ccn	Flü-	.	[4cc	>	(4g	< [	(4b-X	< [	(4ccn	< [ >
.	.	.	.	.	.	12dn	.	.	.	.	.	.	.	.	.	.	.	.	.	.	.
.	.	.	.	.	.	12e-XJ	.	.	.	.	.	.	.	.	.	.	.	.	.	.	.
!!pagebreak:original
=4	=4	=4	=4	=4	=4	=4	=4	=4	=4	=4	=4	=4	=4	=4	=4	=4	=4	=4	=4	=4	=4
!	!	!	!	!	!	!	!	!	!	!	!	!	!	!	!	!	!	!	!	!LO:TX:b:i:t=morendo	!
!	!	!LO:TX:a:t=pizz.	!	!LO:TX:a:t=pizz.	!	!	!	!	!	!	!	!	!	!	!	!	!	!	!	!LO:TX:b:i:t=poco	!
4%3r	.	8bn`L	mp >	8dd#X`L	mp >	8ee-X)	.	4%3r	4r	.	12cc]	.	.	12cc])	.	12f#XL	>	8bn')	.	2.aan)	] < [ > ]
.	.	.	.	.	.	.	.	.	.	.	[6ddn	-gel	.	12r	]	12f	.	.	.	.	.
.	.	8b-X`	.	8ddn`	.	8r	.	.	.	.	.	.	.	.	.	.	.	8r	.	.	.
!	!	!	!	!	!	!	!	!	!	!	!	!	!	!	!	!LO:TX:b:i:t=molto	!	!	!	!	!
.	.	.	.	.	.	.	.	.	.	.	.	.	.	12r	.	12gJ	p ]	.	.	.	.
.	.	8ddn`	.	8ff#X`	.	4r	.	.	4r	.	6dd]	.	.	4r	.	12a-XL	.	4r	.	.	.
.	.	.	.	.	.	.	.	.	.	.	.	.	.	.	.	12b-	.	.	.	.	.
.	.	8an`	.	8een`	.	.	.	.	.	.	.	.	.	.	.	.	.	.	.	.	.
.	.	.	.	.	.	.	.	.	.	.	[12een	Des	.	.	.	12ccJ	.	.	.	.	.
.	.	8bn`	.	8gg#X`	.	(4aan	ppp < [	.	(36ffnLLL	p >	6.ee]	.	.	4r	.	12cc#XL	>	4r	.	.	.
.	.	.	.	.	.	.	.	.	36ggn	.	.	.	.	.	.	.	.	.	.	.	.
.	.	.	.	.	.	.	.	.	36aa-XJJ	.	.	.	.	.	.	.	.	.	.	.	.
.	.	.	.	.	.	.	.	.	36bb-XLL	.	.	.	.	.	.	12eeX	.	.	.	.	.
.	.	.	.	.	.	.	.	.	36cccn	.	.	.	.	.	.	.	.	.	.	.	.
.	.	8een`J	]	8ggn`J	]	.	.	.	.	.	.	.	.	.	.	.	.	.	.	.	.
.	.	.	.	.	.	.	.	.	36ddd-XJJ	.	.	.	.	.	.	.	.	.	.	.	.
.	.	.	.	.	.	.	.	.	36eee-XLL	.	.	.	.	.	.	12bbXJ	]	.	.	.	.
.	.	.	.	.	.	.	.	.	36fffn	.	.	.	.	.	.	.	.	.	.	.	.
.	.	.	.	.	.	.	.	.	36gggnJJ	.	.	.	.	.	.	.	.	.	.	.	.
=5	=5	=5	=5	=5	=5	=5	=5	=5	=5	=5	=5	=5	=5	=5	=5	=5	=5	=5	=5	=5	=5
!	!	!	!	!	!	!LO:TX:a:t=(tutti)	!	!	!	!	!	!	!	!	!	!	!	!	!	!	!
!	!	!LO:TX:a:t=arco	!	!LO:TX:a:t=arco	!	!LO:TX:b:t=pp,ma espr..	!	!	!	!	!	!	!	!	!	!	!	!	!	!	!
4%3r	.	([4dddn	pp <	([4fffn	pp <	2ggg#X	<	4%3r	8aaa-XJ)	.	[6.ffn	Win-	.	8r	.	8ddd)	.	12r	.	4r	.
*	*	*	*	*	*	*	*	*	*	*	*	*	*	*	*	*	*	*tremolo	*	*	*
!	!	!	!	!	!	!	!	!	!	!	!	!	!	!	!	!	!	!LO:TX:a:t=(Flzg.)	!	!	!
.	.	.	.	.	.	.	.	.	.	.	.	.	.	.	.	.	.	(48ggnLLL	pp	.	.
.	.	.	.	.	.	.	.	.	.	.	.	.	.	.	.	.	.	48ggn	.	.	.
!	!	!	!	!	!	!	!	!	!	!	!	!	!	!LO:TX:a:t=(con sord.)m. d. Gesang	!	!	!	!	!	!	!
.	.	.	.	.	.	.	.	.	8r	]	.	.	.	([8ff	p <	8r	.	48ggn	.	.	.
.	.	.	.	.	.	.	.	.	.	.	.	.	.	.	.	.	.	48ggn	.	.	.
.	.	.	.	.	.	.	.	.	.	.	.	.	.	.	.	.	.	48aan	.	.	.
.	.	.	.	.	.	.	.	.	.	.	.	.	.	.	.	.	.	48aan	.	.	.
.	.	.	.	.	.	.	.	.	.	.	.	.	.	.	.	.	.	48aan	.	.	.
.	.	.	.	.	.	.	.	.	.	.	.	.	.	.	.	.	.	48aanJJJ	.	.	.
.	.	12dddL]	[	12fffL]	[	.	.	.	4r	.	12ff]	-des,	.	12ff]	[	4r	.	48bb-XLLL	.	4r	.
.	.	.	.	.	.	.	.	.	.	.	.	.	.	.	.	.	.	48bb-X	.	.	.
.	.	.	.	.	.	.	.	.	.	.	.	.	.	.	.	.	.	48bb-X	.	.	.
.	.	.	.	.	.	.	.	.	.	.	.	.	.	.	.	.	.	48bb-X	.	.	.
.	.	12ccc#X	.	12eeen	.	.	.	.	.	.	[6een	.	.	[6ee	< [ > ]	.	.	48aan	.	.	.
.	.	.	.	.	.	.	.	.	.	.	.	.	.	.	.	.	.	48aan	.	.	.
.	.	.	.	.	.	.	.	.	.	.	.	.	.	.	.	.	.	48aan	.	.	.
.	.	.	.	.	.	.	.	.	.	.	.	.	.	.	.	.	.	48aan	.	.	.
.	.	12ggnJ	>	12cccnJ	>	.	.	.	.	.	.	.	.	.	.	.	.	48bb-X	.	.	.
.	.	.	.	.	.	.	.	.	.	.	.	.	.	.	.	.	.	48bb-X	.	.	.
.	.	.	.	.	.	.	.	.	.	.	.	.	.	.	.	.	.	48bb-X	.	.	.
.	.	.	.	.	.	.	.	.	.	.	.	.	.	.	.	.	.	48bb-XJJJ	.	.	.
.	.	8ff#X)	.	8bbn)	.	4bbn,)	] > ]	.	4r	.	6ee]	.	.	12eeL]	.	4r	.	48aan'	.	12r	.
.	.	.	.	.	.	.	.	.	.	.	.	.	.	.	.	.	.	48aan'	.	.	.
.	.	.	.	.	.	.	.	.	.	.	.	.	.	.	.	.	.	48aan'	.	.	.
.	.	.	.	.	.	.	.	.	.	.	.	.	.	.	.	.	.	48aan')	.	.	.
*	*	*	*	*	*	*	*	*	*	*	*	*	*	*	*	*	*	*Xtremolo	*	*	*
*	*	*	*	*	*	*	*	*	*	*	*	*	*	*	*	*	*	*	*	*tremolo	*
!	!	!	!	!	!	!	!	!	!	!	!	!	!	!	!	!	!	!	!	!LO:TX:a:t=(Flzg.)	!
.	.	.	.	.	.	.	.	.	.	.	.	.	.	12ee-X	.	.	.	12r	.	(48anLLL	p
.	.	.	.	.	.	.	.	.	.	.	.	.	.	.	.	.	.	.	.	48an	.
.	.	8r	]	8r	]	.	.	.	.	.	.	.	.	.	.	.	.	.	.	48an	.
.	.	.	.	.	.	.	.	.	.	.	.	.	.	.	.	.	.	.	.	48an	.
.	.	.	.	.	.	.	.	.	.	.	[12ddn	der	.	12ddJ)	.	.	.	12r	.	48b-X	.
.	.	.	.	.	.	.	.	.	.	.	.	.	.	.	.	.	.	.	.	48b-X	.
.	.	.	.	.	.	.	.	.	.	.	.	.	.	.	.	.	.	.	.	48b-X	.
.	.	.	.	.	.	.	.	.	.	.	.	.	.	.	.	.	.	.	.	48b-XJJJ	.
=6	=6	=6	=6	=6	=6	=6	=6	=6	=6	=6	=6	=6	=6	=6	=6	=6	=6	=6	=6	=6	=6
*	*	*	*	*	*	*	*	*	*	*	*	*	*	*tremolo	*	*	*	*	*	*	*
!	!	!	!	!	!	!	!	!	!	!	!	!	!	!LO:TX:a:t=Flzg.	!	!	!	!	!	!	!
4%3r	.	(2gg#X	<	(2ddd#X	<	(2ggg#X	<	4%3r	4%3r	.	6.dd]	.	.	(16ddLL	.	4%3r	.	4%3r	.	48ccnLLL	.
.	.	.	.	.	.	.	.	.	.	.	.	.	.	.	.	.	.	.	.	48ccn	.
.	.	.	.	.	.	.	.	.	.	.	.	.	.	.	.	.	.	.	.	48ccn	.
.	.	.	.	.	.	.	.	.	.	.	.	.	.	16dd	.	.	.	.	.	48ccn	.
.	.	.	.	.	.	.	.	.	.	.	.	.	.	.	.	.	.	.	.	48bn	.
.	.	.	.	.	.	.	.	.	.	.	.	.	.	.	.	.	.	.	.	48bn	.
.	.	.	.	.	.	.	.	.	.	.	.	.	.	16dd	.	.	.	.	.	48bn	.
.	.	.	.	.	.	.	.	.	.	.	.	.	.	.	.	.	.	.	.	48bn	.
.	.	.	.	.	.	.	.	.	.	.	.	.	.	.	.	.	.	.	.	48an	.
.	.	.	.	.	.	.	.	.	.	.	.	.	.	16ddJJ	.	.	.	.	.	48an	.
.	.	.	.	.	.	.	.	.	.	.	.	.	.	.	.	.	.	.	.	48an	.
.	.	.	.	.	.	.	.	.	.	.	.	.	.	.	.	.	.	.	.	48anJJJ	.
.	.	.	.	.	.	.	.	.	.	.	[6.ccn	eilt	.	4cc)	< [ > ]	.	.	.	.	48gnLLL	.
.	.	.	.	.	.	.	.	.	.	.	.	.	.	.	.	.	.	.	.	48gn	.
.	.	.	.	.	.	.	.	.	.	.	.	.	.	.	.	.	.	.	.	48gn	.
.	.	.	.	.	.	.	.	.	.	.	.	.	.	.	.	.	.	.	.	48gn	.
.	.	.	.	.	.	.	.	.	.	.	.	.	.	.	.	.	.	.	.	48f#X	.
.	.	.	.	.	.	.	.	.	.	.	.	.	.	.	.	.	.	.	.	48f#X	.
.	.	.	.	.	.	.	.	.	.	.	.	.	.	.	.	.	.	.	.	48f#X	.
.	.	.	.	.	.	.	.	.	.	.	.	.	.	.	.	.	.	.	.	48f#X	.
.	.	.	.	.	.	.	.	.	.	.	.	.	.	.	.	.	.	.	.	48en	.
.	.	.	.	.	.	.	.	.	.	.	.	.	.	.	.	.	.	.	.	48en	.
.	.	.	.	.	.	.	.	.	.	.	.	.	.	.	.	.	.	.	.	48en	.
.	.	.	.	.	.	.	.	.	.	.	.	.	.	.	.	.	.	.	.	48enJJJ	.
.	.	[4g#X)	] > ]	4ffn)	] > ]	4bbn)	] > ]	.	.	.	12cc]	.	.	12r	.	.	.	.	.	48dnLLL	.
.	.	.	.	.	.	.	.	.	.	.	.	.	.	.	.	.	.	.	.	48dn	.
.	.	.	.	.	.	.	.	.	.	.	.	.	.	.	.	.	.	.	.	48dn	.
.	.	.	.	.	.	.	.	.	.	.	.	.	.	.	.	.	.	.	.	48dn	.
.	.	.	.	.	.	.	.	.	.	.	[6b-X	oh-	.	([6b-	< [ > ]	.	.	.	.	48c#X	.
.	.	.	.	.	.	.	.	.	.	.	.	.	.	.	.	.	.	.	.	48c#X	.
.	.	.	.	.	.	.	.	.	.	.	.	.	.	.	.	.	.	.	.	48c#X	.
.	.	.	.	.	.	.	.	.	.	.	.	.	.	.	.	.	.	.	.	48c#X	.
.	.	.	.	.	.	.	.	.	.	.	.	.	.	.	.	.	.	.	.	48dn	.
.	.	.	.	.	.	.	.	.	.	.	.	.	.	.	.	.	.	.	.	48dn	.
.	.	.	.	.	.	.	.	.	.	.	.	.	.	.	.	.	.	.	.	48dn	.
.	.	.	.	.	.	.	.	.	.	.	.	.	.	.	.	.	.	.	.	48dnJJJ	.
=7	=7	=7	=7	=7	=7	=7	=7	=7	=7	=7	=7	=7	=7	=7	=7	=7	=7	=7	=7	=7	=7
*	*	*	*	*tremolo	*	*	*	*	*	*	*	*	*	*	*	*	*	*	*	*	*
4%3r	.	8g#]	.	(48ff#XLLL	.	(4cccn	<	4%3r	4%3r	.	6b-X]	.	.	12b-L]	.	12r	.	4%3r	.	32e-X	.
.	.	.	.	48ff#X	.	.	.	.	.	.	.	.	.	.	.	.	.	.	.	.	.
.	.	.	.	.	.	.	.	.	.	.	.	.	.	.	.	.	.	.	.	32e-X	.
.	.	.	.	48ff#X	.	.	.	.	.	.	.	.	.	.	.	.	.	.	.	.	.
.	.	.	.	48ff#X	.	.	.	.	.	.	.	.	.	.	.	.	.	.	.	32e-X	.
.	.	.	.	48een	.	.	.	.	.	.	.	.	.	48bX	.	12r	.	.	.	.	.
.	.	.	.	.	.	.	.	.	.	.	.	.	.	.	.	.	.	.	.	32e-X)	.
.	.	.	.	48een	.	.	.	.	.	.	.	.	.	48bX	.	.	.	.	.	.	.
*	*	*	*	*	*	*	*	*	*	*	*	*	*	*	*	*	*	*	*	*Xtremolo	*
.	.	8r	.	48een	.	.	.	.	.	.	.	.	.	48bX	.	.	.	.	.	8r	.
.	.	.	.	48een	.	.	.	.	.	.	.	.	.	48bX	.	.	.	.	.	.	.
*	*	*	*	*	*	*	*	*	*	*	*	*	*	*	*	*tremolo	*	*	*	*	*
!	!	!	!	!	!	!	!	!	!	!	!	!	!	!	!	!LO:TX:a:t=Flzg.	!	!	!	!	!
.	.	.	.	48ddn	.	.	.	.	.	.	[12a-X	-ne	.	48a	.	(48eX	p	.	.	.	.
.	.	.	.	48ddn	.	.	.	.	.	.	.	.	.	48a	.	48eX	.	.	.	.	.
.	.	.	.	48ddn	.	.	.	.	.	.	.	.	.	48a	.	48eX	.	.	.	.	.
.	.	.	.	48ddnJJJ	.	.	.	.	.	.	.	.	.	48aJJJ	.	48eX	.	.	.	.	.
*	*	*	*	*	*	*	*	*	*	*	*	*	*	*Xtremolo	*	*	*	*	*	*	*
.	.	4r	.	[4ccn	.	8.dddn)	[ >	.	.	.	6.a-]	.	.	4a-X	.	48f#XLLL	.	.	.	4r	.
.	.	.	.	.	.	.	.	.	.	.	.	.	.	.	.	48f#X	.	.	.	.	.
.	.	.	.	.	.	.	.	.	.	.	.	.	.	.	.	48f#X	.	.	.	.	.
.	.	.	.	.	.	.	.	.	.	.	.	.	.	.	.	48f#X	.	.	.	.	.
.	.	.	.	.	.	.	.	.	.	.	.	.	.	.	.	48eX	.	.	.	.	.
.	.	.	.	.	.	.	.	.	.	.	.	.	.	.	.	48eX	.	.	.	.	.
.	.	.	.	.	.	.	.	.	.	.	.	.	.	.	.	48eX	.	.	.	.	.
.	.	.	.	.	.	.	.	.	.	.	.	.	.	.	.	48eX	.	.	.	.	.
.	.	.	.	.	.	.	.	.	.	.	.	.	.	.	.	48d#X	.	.	.	.	.
.	.	.	.	.	.	16r	]	.	.	.	.	.	.	.	.	48d#X	.	.	.	.	.
.	.	.	.	.	.	.	.	.	.	.	.	.	.	.	.	48d#X	.	.	.	.	.
.	.	.	.	.	.	.	.	.	.	.	.	.	.	.	.	48d#XJJJ	.	.	.	.	.
.	.	4r	.	12ccL]	.	([4eeen	< [	.	.	.	[6.gn	Zü-	.	[4g)	.	48c#XLLL	.	.	.	4r	.
.	.	.	.	.	.	.	.	.	.	.	.	.	.	.	.	48c#X	.	.	.	.	.
.	.	.	.	.	.	.	.	.	.	.	.	.	.	.	.	48c#X	.	.	.	.	.
.	.	.	.	.	.	.	.	.	.	.	.	.	.	.	.	48c#X	.	.	.	.	.
.	.	.	.	48ddn	.	.	.	.	.	.	.	.	.	.	.	48c	.	.	.	.	.
.	.	.	.	48ddn	.	.	.	.	.	.	.	.	.	.	.	48c	.	.	.	.	.
.	.	.	.	48ddn	.	.	.	.	.	.	.	.	.	.	.	48c	.	.	.	.	.
.	.	.	.	48ddn	.	.	.	.	.	.	.	.	.	.	.	48c	.	.	.	.	.
.	.	.	.	48ee-X	.	.	.	.	.	.	.	.	.	.	.	48B-	.	.	.	.	.
.	.	.	.	48ee-X	.	.	.	.	.	.	.	.	.	.	.	48B-	.	.	.	.	.
.	.	.	.	48ee-X	.	.	.	.	.	.	.	.	.	.	.	48B-	.	.	.	.	.
.	.	.	.	48ee-X)JJJ	.	.	.	.	.	.	.	.	.	.	.	48B-)JJJ	.	.	.	.	.
*	*	*	*	*	*	*	*	*	*	*	*	*	*	*	*	*Xtremolo	*	*	*	*	*
*	*	*	*	*Xtremolo	*	*	*	*	*	*	*	*	*	*	*	*	*	*	*	*	*
=	=	=	=	=	=	=	=	=	=	=	=	=	=	=	=	=	=	=	=	=	=
*-	*-	*-	*-	*-	*-	*-	*-	*-	*-	*-	*-	*-	*-	*-	*-	*-	*-	*-	*-	*-	*-
!!!system-decoration: s1,s2,s3,s4,s5{(s6,s7)}s8,s9,s10,s11
!!!RDF**kern: i = editorial accidental
